**kern	**kern	**dynam
*part1	*part1	*part1
*staff2	*staff1	*
*I"Piano	*	*
*clefF4	*clefG2	*
*k[b-]	*k[b-]	*
=1	=1	=1
8BB-L	8dL 8f 8b-	<
8C	8B- 8f 8g	.
8C	8B- 8f 8g	.
8CJ	8B-J 8e 8g	.
=	=	=
*^	*	*
8AL 8c	2C	4g	[ f
8A 8c	.	.	.
8A 8c	.	4f	.
8AJ 8c	.	.	.
=	=	=	=
8G#XL 8Bn 8d	4C	4f	f
8G# 8B 8d	.	.	.
8Gn 8B-X 8d	4CC	8fL	p
8GJ 8B- 8c	.	8eJ	.
=	=	=	=
8AL 8c	4FF	4f	<
8B- 8d	.	.	.
8A 8c	4F	4f	.
8cJ 8e-X	.	.	.
=	=	=	=
*	*	*^	*
!	!	!LO:TX:a:i:t=legato	!	!LO:DY:a
8B-L	2F	(4f^^	8dL	[ f
16AL	.	.	16cL	.
16B-JJ	.	.	16dJJ	.
8cL	.	4f^^	8e-XL	.
8AJ	.	.	8cJ	.
=	=	=	=	=
!	!	!	!	!LO:DY:a
8B-L	2F	4f	8dL	ff
16AL	.	.	16cL	.
16B-JJ	.	.	16dJJ	.
8cL	.	4f	8e-XL	.
8AJ	.	.	8cJ	.
*	*	*v	*v	*
=	=	=	=
!	!	!	!LO:DY:a
8B-L	2F	8dL 8f	f
8d	.	[8f 8b-	.
8c	.	8f] 8a	.
8B-J	.	[8cJ 8g	.
*v	*v	*	*
=	=	=
*-	*-	*-
!!!system-decoration: {(s1,s2)}
